vi-base/public/vi/viur-shoelace/assets/icons/add-file.svg

<svg xmlns="http://www.w3.org/2000/svg" viewBox="13 7 33 44"><path fill="currentcolor" opacity=".5" d="M24.05 7.25 13.84 18.99h10.21V7.25z"/><path d="M24.05 7.25V19H13.84v31.92h31.85V7.25Zm16.83 28.49h-9.26V45h-3.71v-9.26h-9.27V32h9.27v-9.23h3.71V32h9.26Z" fill="currentcolor"/></svg>

<svg xmlns="http://www.w3.org/2000/svg" viewBox="13 7 33 44"><polygon points="24.05 7.25 13.84 18.99 24.05 18.99 24.05 7.25" fill="currentcolor" opacity="0.5"/><path d="M24.05,7.25V19H13.84V50.92H45.69V7.25ZM40.88,35.74H31.62V45H27.91V35.74H18.64V32h9.27V22.77h3.71V32h9.26Z" fill="currentcolor"/></svg>
